!!!COM: Marotta, Erasmo
!!!CDT:
!!!PTL: Aminta musicale. Il primo libro de madrigali a cinque voci
!!!PPP: Venice
!!!PPR: Angelo Gardano
!!!PDT: 1600
!!!PUB-format:
!!!RISM: M 714
!!!OTL:	Così dicendo avvicinò le labbra
!!!act: I
!!!scene: 2
!!!verse: 459
!!!AGN: 
!!!SCT: Tam1020459a
!!!SCA: Tam1020459a
!!!original-voices: 5
!!!extant-voices: 3
!!!complete: N
!!!final: (C)C
**kern	**text	**kern	**text	**kern	**text
*part3	*part3	*part2	*part2	*part1	*part1
*staff3	*staff3	*staff2	*staff2	*staff1	*staff1
*I"Basso	*	*I"Quinto	*	*I"Canto	*
*I'B	*	*I'V	*	*I'C	*
*oclefC4	*	*oclefG2	*	*oclefG2	*
*clefGv2	*	*clefG2	*	*clefG2	*
*k[]	*	*k[]	*	*k[]	*
*omet(C)	*	*omet(C)	*	*omet(C)	*
*M4/2	*	*M4/2	*	*M4/2	*
=1	=1	=1	=1	=1	=1
!!LO:TX:a:t=[Terza parte]
0r	.	0r	.	4r	.
.	.	.	.	4gg	Co-
.	.	.	.	4.ff	-sì
.	.	.	.	8ff	di-
.	.	.	.	4ee	-cen-
.	.	.	.	4gg	-do a-
.	.	.	.	4ff	-vi-
.	.	.	.	4ee	-ci-
=2	=2	=2	=2	=2	=2
2r	.	0r	.	4dd	-nò
.	.	.	.	4cc	le
2G	Co-	.	.	2b	lab-
4A	-sì	.	.	4cc	-bra
4B	di-	.	.	8bL	.
.	.	.	.	8aJ	.
4.c	-cen-	.	.	2g	.
8B	-do a-	.	.	.	.
=3	=3	=3	=3	=3	=3
4A	-vi-	2cc	Co-	0r	.
4G	-ci-	.	.	.	.
4F	-nò	4dd	-sì	.	.
4E	le	4ee	di-	.	.
1D	lab-	4ff	-cen-	.	.
.	.	4dd	-do a-	.	.
.	.	4.ff	-vi-	.	.
.	.	8ff	-ci-	.	.
=4	=4	=4	=4	=4	=4
1C	-bra	2ee	-nò,	0r	.
.	.	2ee	a-	.	.
1r	.	4ff	-vi-	.	.
.	.	4f	-ci-	.	.
.	.	4g	-nò	.	.
.	.	4a	le	.	.
=5	=5	=5	=5	=5	=5
1r	.	1b-X	lab-	1r	.
2r	.	1a	-bra	4r	.
.	.	.	.	4cc	De
[2f	De	.	.	4a	la
.	.	.	.	4b	sua
=6	=6	=6	=6	=6	=6
2f]	.	1r	.	4cc	bel-
.	.	.	.	4a	-la e
1d	la	.	.	4b-X	dol-
.	.	.	.	4.a	-cis-
.	.	2r	.	.	.
.	.	.	.	8a	-si-
.	.	.	.	4f	-ma
2e	sua	4r	.	2g	boc-
.	.	4cc	De	.	.
=7	=7	=7	=7	=7	=7
2f	bel-	4a	la	1f	-ca,
.	.	4b	sua	.	.
2F	-la,	4cc	bel-	.	.
.	.	4a	-la e	.	.
1r	.	4b-X	dol-	1r	.
.	.	4.a	-cis-	.	.
.	.	8a	-si-	.	.
.	.	4f	-ma	.	.
=8	=8	=8	=8	=8	=8
1r	.	2g	boc-	2cc	<De
.	.	2f	-ca,	4ff	la
.	.	.	.	4gg	sua
2F	De	1ff	<De	4aa	bel-
.	.	.	.	4aa	-la e
[2D	la	.	.	4ff	dol-
.	.	.	.	[4dd	-cis-
=9	=9	=9	=9	=9	=9
2D]	.	2dd	la	8dd]	.
.	.	.	.	8dd	-si-
.	.	.	.	4a	-ma
2C	sua	2ee	sua	1cc	boc-
2F	bel-	2ff	bel-	.	.
4F	-la e	4cc	-la e	2a	-ca>
4F	dol-	4cc	dol-	.	.
=10	=10	=10	=10	=10	=10
4.D	-cis-	4.dd	-cis-	0r	.
8D	-si-	8dd	-si-	.	.
2D	-ma	2a	-ma	.	.
1C	boc-	1cc	boc-	.	.
=11	=11	=11	=11	=11	=11
1F	-ca	1cc	-ca>	2r	.
.	.	.	.	4cc	A
.	.	.	.	4cc	la
1r	.	1r	.	2cc	guan-
.	.	.	.	4cc	-cia
.	.	.	.	4cc	ri-
=12	=12	=12	=12	=12	=12
2r	.	2r	.	2cc	-mor-
4r	.	4r	.	2a	-sa,
4d	A	4ff	A	.	.
4c#X	la	4ee	la	1r	.
4.d	guan-	4.ff	guan-	.	.
8c#i	-cia	8ee	-cia	.	.
4A	ri-	4cc#X	ri-	.	.
=13	=13	=13	=13	=13	=13
1B-X	-mor-	1dd	-mor-	1r	.
1F	-sa,	4cc	-sa,	4r	.
.	.	4cc	e	4a	e
.	.	4cc	con	4a	con
.	.	4dd	so-	4b	so-
=14	=14	=14	=14	=14	=14
4r	.	2ee	-a-	2cc	-a-
4c	e	.	.	.	.
4c	con	4ee	-ve	4ee	-ve
4d	so-	4ff	Su-	4dd	Su-
2e	-a-	2gg	-sur-	1cc	-sur-
4e	-ve	2ee	-ro	.	.
4d	Su-	.	.	.	.
=15	=15	=15	=15	=15	=15
4c	-sur-	4.gg	mor-	1g	-ro
4G	-ro	.	.	.	.
.	.	8ff	-mo-	.	.
4.g	mor-	4ee	-rò	.	.
.	.	4dd	non	.	.
8f	-mo-	.	.	.	.
4e	-rò	4cc	so	4.gg	mor-
4d	non	4b	che	.	.
.	.	.	.	8ff	-mo-
4c	so	4cc	ver-	4ee	-rò
4B	che	4g	-si,	4dd	non
=16	=16	=16	=16	=16	=16
4c	ver-	4.gg	mor-	4cc	so
4G	-si,	.	.	4b	che
.	.	8ff	-mo-	.	.
4C	mor-	4ee	-rò	4cc	ver-
4G	-mo-	4dd	non	4g	-si,
4C	-rò	4cc	so	4.gg	mor-
4G	non	4b	che	.	.
.	.	.	.	8ff	-mo-
4c	so	4cc	ver-	4ee	-rò
4GG	che	4dd	-si,	4dd	non
=17	=17	=17	=17	=17	=17
1C	ver-	8r	.	4ee	so
.	.	8cc	non	.	.
.	.	8a	so	4ff	che
.	.	8b	che	.	.
.	.	2cc	ver-	2ee	ver-
1G	-si.	1b	-si.	1dd	-si,
=18	=18	=18	=18	=18	=18
4r	.	4r	.	0r	.
2F	O	2cc	O	.	.
4F	mi-	4cc	mi-	.	.
2F	-ra-	2cc	-ra-	.	.
4A	-bi-	4cc	-bi-	.	.
4A	-li ef-	4cc	-li ef-	.	.
=19	=19	=19	=19	=19	=19
0E	-fet-	0ee	-fet-	0r	.
=20	=20	=20	=20	=20	=20
1E	-ti!	1ee	-ti!	2r	.
.	.	.	.	2b	Sen-
1r	.	4r	.	2.ee	-ti
.	.	4ee	Sen-	.	.
.	.	4cc	-ti	.	.
.	.	[4b	to-	[4dd	to-
=21	=21	=21	=21	=21	=21
0r	.	8b]	.	8dd]	.
.	.	8b	-sto	8dd	-sto
.	.	4b	Ces-	4ee	Ces-
.	.	4cc	-sar	4ff	-sar
.	.	4b	la	4ee	la
.	.	2a	do-	2dd	do-
.	.	2g#X	-glia,	2ee	-glia,
=22	=22	=22	=22	=22	=22
0r	.	4r	.	4r	.
.	.	4g#X	o	4b	o
.	.	2.g#X	fos-	2.b	fos-
.	.	4a	-se	4cc	-se
.	.	4b	la	4dd	la
.	.	4cc	vir-	4ee	vir-
=23	=23	=23	=23	=23	=23
0r	.	2b	-tu-	2dd	-tu-
.	.	2cc	-te	2ee	-te
.	.	4a	Di	2.cc	Di
.	.	4a	quei	.	.
.	.	4a	ma-	.	.
.	.	8a	-gi-	4cc	quei
.	.	8a	-ci	.	.
=24	=24	=24	=24	=24	=24
0r	.	8bL	det-	2dd	ma-
.	.	8aJ	.	.	.
.	.	4.a	.	.	.
.	.	.	.	4b	-gi-
.	.	8g	.	.	.
.	.	2g	.	4b	-ci
.	.	.	.	1a	det-
.	.	8f#XL	.	.	.
.	.	8eJ	.	.	.
.	.	2f#X	.	.	.
=25	=25	=25	=25	=25	=25
2r	.	1g	-ti	1b	-ti
2G	o	.	.	.	.
4.c	co-	1r	.	1r	.
8c	-m'io	.	.	.	.
2B	cre-	.	.	.	.
=26	=26	=26	=26	=26	=26
1c	-do,	2r	.	2g	o
.	.	2gg	o	4.cc	co-
.	.	.	.	8cc	-m'io
4r	.	4.dd	co-	2b	cre-
8G	La	.	.	.	.
8F	vir-	8dd	-m'io	.	.
4E	-tù	2ee	cre-	2cc	-do,
8D	de	.	.	.	.
8C	la	.	.	.	.
=27	=27	=27	=27	=27	=27
2G	boc-	2dd	-do,	4r	.
.	.	.	.	8gg	La
.	.	.	.	8ff	vir-
2C	-ca,	2r	.	4ee	-tù
.	.	.	.	8dd	de
.	.	.	.	8cc	la
1r	.	4r	.	2dd	boc-
.	.	8gg	La	.	.
.	.	8ff	vir-	.	.
.	.	4ee	-tù	2cc	-ca,
.	.	8dd	de	.	.
.	.	8cc	la	.	.
=28	=28	=28	=28	=28	=28
1r	.	2dd	boc-	2g	o
.	.	2cc	-ca,	4g	co-
.	.	.	.	4a	-m'io
2G	o	2r	.	4.b	cre-
.	.	.	.	16aL	.
.	.	.	.	16gJ	.
[4.D	co-	2dd	o	2a	.
8D]	-m'io	.	.	.	.
=29	=29	=29	=29	=29	=29
2E	cre-	4.gg	co-	2g	-do,
.	.	8gg	-m'io	.	.
2D	-do,	2ff#X	cre-	2r	.
1r	.	2gg	-do,	2r	.
.	.	2r	.	4r	.
.	.	.	.	8dd	La
.	.	.	.	8cc	vir-
=30	=30	=30	=30	=30	=30
2r	.	1r	.	4b	-tù
.	.	.	.	8a	de
.	.	.	.	8g	la
4.d	La	.	.	2a	boc-
8c	vir-	.	.	.	.
4B	-tù	2r	.	2g	-ca,
8A	de	.	.	.	.
8G	la	.	.	.	.
2d	boc-	4r	.	2r	.
.	.	4dd	Che	.	.
=31	=31	=31	=31	=31	=31
1.G	-ca,	4b	sa-	4r	.
.	.	4b	-na	4dd	Che
.	.	4ee	ciò	4b	sa-
.	.	4dd	che	4b	-na
.	.	8gL	toc-	4ee	ciò
.	.	8a	.	.	.
.	.	8b	.	4dd	che
.	.	8ccJ	.	.	.
4r	.	4dd	.	8bL	toc-
.	.	.	.	8cc	.
4G	Che	4b	-ca,	8dd	.
.	.	.	.	8bJ	.
=32	=32	=32	=32	=32	=32
4E	sa-	2r	.	2ee	.
4E	-na	.	.	.	.
4A	ciò	4r	.	4ee	-ca,
4G	che	4g	<Che	4gg	<Che
4.C	toc-	4g	sa-	4.ee	sa-
.	.	4g	-na	.	.
8D	.	.	.	8ff	-na
4E	.	4g	ciò	4gg	ciò
4C	.	4g	che	4ee	che
=33	=33	=33	=33	=33	=33
2G	.	2g	toc-	1dd	toc-
2G	-ca,	4g	-ca,	.	.
.	.	4gg	Che	.	.
4r	.	4ee	sa-	2g	-ca,
4c	Che	4ee	-na	.	.
4A	sa-	4.cc	ciò	4r	.
4A	-na	.	.	4cc	Che
.	.	8dd	che	.	.
=34	=34	=34	=34	=34	=34
4c	ciò	2ee	toc-	2cc	sa-
4A	che	.	.	.	.
8FL	toc-	4ff	-ca,>	2cc	-na
8G	.	.	.	.	.
8A	.	8fL	ciò	.	.
8GJ	.	8gJ	.	.	.
8FL	.	8aL	.	2ff	ciò
8G	.	8b	.	.	.
8A	.	8cc	.	.	.
8BJ	.	8ddJ	.	.	.
8cL	.	[2cc	.	2ee	che
8B	.	.	.	.	.
8A	.	.	.	.	.
8GJ	.	.	.	.	.
=35	=35	=35	=35	=35	=35
1F	.	4cc]	.	[1ff	toc-
.	.	4cc	che	.	.
.	.	2cc	toc-	.	.
[1Cl	-ca.	[1ccl	-ca.	2ff]	.
.	.	.	.	4ee	.
.	.	.	.	4dd	.
=36	=36	=36	=36	=36	=36
0C]	.	0cc]	.	0eel	-ca.>
==	==	==	==	==	==
*-	*-	*-	*-	*-	*-
!!!system-decoration: [*]
!!!RDF**kern: i = editorial accidental
!!!RDF**kern: l = terminal long
!!!ENC: Emiliano Ricciardi
!!!END: 2018/05/10
!!!EED: Coluzzi, Seth
!!!EEV: 2018/07/13
!!!YEC: Copyright 2018 Emiliano Ricciardi, All Rights Reserved
!!!ONB: Translated from MusicXML on 2018/07/13 and edited by Craig Stuart Sapp
!!@@BEGIN:	VERSEDATA
!!@CATALOGNUM:	Tam1020459
!!@LAST_MODIFIED: 2020/07/12
!!@ACT:        I
!!@SCENE:      2
!!@VERSE:      459
!!@TITLE:      Così dicendo avvicinò le labbra
!!@MANUSRC:	A-Am, A-Au, A-Br, A-CM, A-F, A-Ub
!!@PRINTSRC:	A-1580D, A-1580M, A-1581B, A-1581B<sub>bis</sub>, A-1581M, A-1581M<sub>bis</sub>, A-1581O, A-1581V, A-1582B, A-1583M, A-1583V, A-1584A, A-1585C, A-1585V, A-1585V<sub>bis</sub>, A-1588B, A-1589M, A-1589V, A-1590Mb, A-1590Mv, A-1591M, A-1591W, A-1592B, A-1596B, A-1596M, A-1599Bf, A-1599Bp, A-1600R, A-1601Bf, A-1601Bp, A-1602B, A-1603Bf, A-1603Bv, A-1603Z, A-1605R, A-1606Z, A-1608D, A-1608DP, A-1609Bf, A-1609Bv, A-1609Z, A-1611D, A-1614GT, A-1617D, A-1618B, A-1619D, A-1619I, A-1620V, A-1622D, A-1623A, A-1624M, A-1624S, A-1624T, A-1625U, A-1628U, A-1632D, A-1634R
!!@@BEGIN:	VERSES
!!@ABOUTIT:	
!!@ABOUTEN:	
!!@EDITOR:	Solerti, Angelo
!!@EDITION_TITLE: Opere minori in versi di Torquato Tasso. Edizione critica sugli autografi e sulle antiche stampe.
!!@EDITION_LOC:	Bologna
!!@EDITION_PUB:	Zanichelli
!!@EDITION_DATE:  1895
!!@EDITION_VOL:	3
!!@EDITION_PAGE:
!!@TRANSLATOR:	Emiliano Ricciardi and Amyrose McCue Gill
!!@VERSE:	
!!	Così dicendo, avicinò le labra
!!	De la sua bella e dolcissima bocca
!!	A la guancia rimorsa, e con soave
!!	Sussurro mormorò non so che versi.
!!	Oh mirabili effetti! Sentì tosto
!!	Cessar la doglia, o fosse la virtute
!!	Di que' magici detti, o, com'io credo,
!!	La virtù della bocca
!!	Che sana ciò che tocca.
!!@TVERSE:
!!	Thus saying, [Silvia] brought near the lips
!!	Of her beautiful and sweetest mouth
!!	To her stung cheek, and with a pleasing
!!	Whisper murmured I know not what lines.
!!	O wondrous results! [Phyllis] felt at once
!!	Her pain cease, whether it was the virtue
!!	Of these magic words, or, as I believe,
!!	The virtue of the mouth
!!	That heals whatever it touches.
!!@@END:		VERSES
!!@NEW_CRIT_ED:
!!@ATTRIBUTION_ABOUT:	
!!@DATING:	1573
!!@DEDICATEE:	
!!@COMMENTARY:
!!@@END:		VERSEDATA
!!@@BEGIN: SETTING
!!@CATALOGNUM:	Tam1020459a
!!@ACT:		I
!!@SCENE:		2
!!@VERSE:		459
!!@TITLE:		Così dicendo avvicinò le labbra
!!@SETTINGTITLE: Così dicendo avicinò le labbra
!!@COMPOSER:	Marotta, Erasmo
!!@PRINCEPSTITLE:	Aminta musicale. Il primo libro de madrigali a cinque voci
!!@PRINCEPSLOC:	Venice
!!@NORMLOC:	Venice
!!@NORMPUB:	Angelo Gardano
!!@NORMPUBSHORT:	Gardano
!!@PRINCEPSPUB:	Angelo Gardano
!!@PRINCEPSYEAR:	1600
!!@PRINCEPSRISM:	M 714
!!@OVOICES:	5
!!@EXTANTVOICES:	3
!!@OMENSURATION:	C
!!@OCLEFS:	G2,G2,C4
!!@OTIME:		
!!@OKEYSIG:	-
!!@FINAL:		(C)C
!!@TIMPEDITOR:	Coluzzi, Seth
!!@PARTS:		3 of 8
!!@REPRINTS:	
!!@@END: SETTING
